icons/boy_0105y_fill.svg

<svg width="48" height="48" viewBox="0 0 48 48" fill="none" xmlns="http://www.w3.org/2000/svg">
<path fill-rule="evenodd" clip-rule="evenodd" d="M24.0001 17C26.2092 17 28.0001 15.2091 28.0001 13C28.0001 10.7909 26.2092 9 24.0001 9C21.791 9 20.0001 10.7909 20.0001 13C20.0001 15.2091 21.791 17 24.0001 17ZM35.4356 18.9836C35.7139 20.0525 35.073 21.1447 34.0041 21.423C32.1998 21.8928 30.5595 22.2523 29 22.4992V28.8749L29.9846 36.7519C30.1158 37.8014 29.4071 38.7717 28.3673 38.9659C27.3275 39.1601 26.3163 38.5112 26.0598 37.485L24.0598 29.485C24.0197 29.3247 24.0001 29.1619 24.0001 29C24.0001 29.1619 23.9804 29.3248 23.9403 29.4851L21.9403 37.4851C21.6838 38.5112 20.6725 39.1602 19.6328 38.966C18.593 38.7718 17.8843 37.8015 18.0155 36.7519L19 28.8755V22.4727C17.4455 22.2248 15.8123 21.8734 14.0189 21.4288C12.9467 21.163 12.2931 20.0784 12.5589 19.0063C12.8247 17.9342 13.9092 17.2805 14.9813 17.5463C18.6193 18.4482 21.3398 18.8913 24.0079 18.902C26.67 18.9126 29.3826 18.493 32.9961 17.5521C34.0651 17.2738 35.1572 17.9147 35.4356 18.9836Z" fill="black"/>
</svg>

<svg
  xmlns="http://www.w3.org/2000/svg"
  width="24"
  height="24"
  viewBox="0 0 24 24"
  fill="none"
  stroke="currentColor"
  stroke-width="2"
  stroke-linecap="round"
  stroke-linejoin="round"
>
  <path
    fill-rule="evenodd"
    d="M24 17a4 4 0 1 0 0-8 4 4 0 0 0 0 8m11.436 1.984a2 2 0 0 1-1.432 2.439c-1.804.47-3.444.83-5.004 1.076v6.376l.985 7.877a2 2 0 0 1-3.925.733l-2-8Q24 29.244 24 29q0 .244-.06.485l-2 8a2 2 0 0 1-3.925-.733L19 28.875v-6.402c-1.555-.248-3.188-.6-4.981-1.044a2 2 0 1 1 .962-3.883c3.638.902 6.359 1.345 9.027 1.356 2.662.01 5.375-.409 8.988-1.35a2 2 0 0 1 2.44 1.432"
    clip-rule="evenodd"
  />
</svg>
